shader_type canvas_item;

/*
uniform vec4 fill_color : source_color;
uniform bool active = false;*/


void vertex() {
	// Called for every vertex the material is visible on.
}

void fragment() {
	/*
	if (active == true) {
		COLOR.rgb = fill_color.rgb;
	}*/
}

void light() {
	// Called for every pixel for every light affecting the CanvasItem.
}
